@S0 = { game_prerendered.flac }

A t130 @S0
A o5c8r8r8r8r8r8>r8r8
A <r8r8r8r8r8r8>r8r8
A <r8r8r8r8r8r8>r8r8
A <r8r8r8r8r8r8>r8r8
A <r8r8r8r8r8r8>r8r8
A <r8r8r8r8r8r8>r8r8
A <r8r8r8r8r8r8>r8r8
A <r8r8r8r8r8r8>r8r8
A <r8r8r8r8r8r8>r8r8
A <r8r8r8r8r8r8>r8r8
A <r8r8r8r8r8r8>r8r8
A <r8r8r8r8r8r8>r8r8
A <r8r8r8r8r8r8>r8r8
A <r8r8r8r8r8r8>r8r8
A <r8r8r8r8r8r8>r8r8
A <r8r8r8r8r8r8>r8r8
A <r8r8r8r8r8r8>r8r8
A <r8r8r8r8r8r8>r8r8
A <r8r8r8r8r8r8>r8r8
A <r8r8r8r8r8r8>r8r8
